Sources/FrostedUI/Resources/Icons.xcassets/receptionBellFilled24.imageset/reception-bell-filled-24.svg

<svg width="24" height="24" viewBox="0 0 24 24" fill="none" xmlns="http://www.w3.org/2000/svg" data-fui-icon="true">
  <path
    d="M15.25 1C15.6642 1 16 1.33579 16 1.75C16 2.16421 15.6642 2.5 15.25 2.5H12.75V4.51758C16.9812 4.70992 19.55 6.53778 21.0439 9.02344C22.5831 11.5843 22.9244 14.7499 22.9873 17.2314C23.0123 18.2188 22.21 19 21.25 19H12.75V21.5H22.25C22.6642 21.5 23 21.8358 23 22.25C23 22.6642 22.6642 23 22.25 23H1.75C1.33579 23 1 22.6642 1 22.25C1 21.8358 1.33579 21.5 1.75 21.5H11.25V19H2.75C1.78997 19 0.987695 18.2188 1.0127 17.2314C1.07555 14.7499 1.41692 11.5843 2.95605 9.02344C4.45 6.53777 7.01876 4.70991 11.25 4.51758V2.5H8.75C8.33579 2.5 8 2.16421 8 1.75C8 1.33579 8.33579 1 8.75 1H15.25Z"
    fill="currentColor"
  />
</svg>

<svg xmlns="http://www.w3.org/2000/svg" width="24" height="24" fill="none" data-fui-icon="true" viewBox="0 0 24 24"><path fill="currentColor" d="M15.25 1a.75.75 0 0 1 0 1.5h-2.5v2.018c4.231.192 6.8 2.02 8.294 4.505 1.54 2.561 1.88 5.727 1.943 8.208A1.73 1.73 0 0 1 21.25 19h-8.5v2.5h9.5a.75.75 0 0 1 0 1.5H1.75a.75.75 0 0 1 0-1.5h9.5V19h-8.5a1.73 1.73 0 0 1-1.737-1.769c.063-2.481.404-5.647 1.943-8.208C4.45 6.538 7.02 4.71 11.25 4.518V2.5h-2.5a.75.75 0 0 1 0-1.5z"/></svg>
